X: 42800
T: Whiting Bay
R: reel
M: 4/4
K: Dmajor
|:f2a2 d3e|f2a2 ab a/f/e|f2a2 d>c de|f2fd edcd:|
B3d cded|B2A4 dc|B3c Bcd2|cBcd e2dc|
B3c Bcd2|B2A4 dc|B3c Bcd2|cBcd e4||

